src/assets/images/components/page/PageHeader/menu-dropdown-help-icon-docs.svg

<svg fill="none" height="28" viewBox="0 0 28 28" width="28" xmlns="http://www.w3.org/2000/svg"><path d="m6.71273 3c-2.62031 0-5.33976 1.22484-6.519373 3.25266-.1647639.29132-.193357.47742-.193357.98905v16.45709c0 .6846.413669 1.0781 1.11984 1.0781.37405 0 .66468-.1115 1.00217-.3635 1.43649-1.1686 3.30071-1.7742 5.16283-1.7742 1.78172 0 3.45136.615 4.70836 1.6772.1437.1181.3129.1788.4587.1788.2768 0 .5025-.2001.5025-.5175v-17.53028c0-.31946-.0319-.4193-.2609-.75047-1.1421-1.67133-3.44273-2.69695-5.98077-2.69695zm14.13657 0c-2.536 0-4.8366 1.02562-5.9787 2.69695-.229.33117-.2608.43101-.2608.75047v17.53028c0 .3174.2257.5175.5025.5175.1457 0 .3246-.0607.4586-.1788 1.257-1.0622 2.9267-1.6772 4.7084-1.6772 1.8621 0 3.7263.6056 5.1628 1.7742.3375.252.6281.3635 1.0001.3635.7082 0 1.1219-.3935 1.1219-1.0781v-16.45709c0-.51163-.0286-.70734-.1933-.98905-1.1797-2.02782-3.8991-3.25266-6.5215-3.25266z" fill="#000"/></svg>

<svg width="28" height="28" viewBox="0 0 28 28" fill="none" xmlns="http://www.w3.org/2000/svg">
<path d="M6.71273 3C4.09242 3 1.37297 4.22484 0.193357 6.25266C0.0285931 6.54398 0 6.73008 0 7.24171V23.6988C0 24.3834 0.413669 24.7769 1.11984 24.7769C1.49389 24.7769 1.78452 24.6654 2.12201 24.4134C3.5585 23.2448 5.42272 22.6392 7.28484 22.6392C9.06656 22.6392 10.7362 23.2542 11.9932 24.3164C12.1369 24.4345 12.3061 24.4952 12.4519 24.4952C12.7287 24.4952 12.9544 24.2951 12.9544 23.9777V6.44742C12.9544 6.12796 12.9225 6.02812 12.6935 5.69695C11.5514 4.02562 9.25077 3 6.71273 3ZM20.8493 3C18.3133 3 16.0127 4.02562 14.8706 5.69695C14.6416 6.02812 14.6098 6.12796 14.6098 6.44742V23.9777C14.6098 24.2951 14.8355 24.4952 15.1123 24.4952C15.258 24.4952 15.4369 24.4345 15.5709 24.3164C16.8279 23.2542 18.4976 22.6392 20.2793 22.6392C22.1414 22.6392 24.0056 23.2448 25.4421 24.4134C25.7796 24.6654 26.0702 24.7769 26.4422 24.7769C27.1504 24.7769 27.5641 24.3834 27.5641 23.6988V7.24171C27.5641 6.73008 27.5355 6.53437 27.3708 6.25266C26.1911 4.22484 23.4717 3 20.8493 3Z" fill="black"/>
</svg>
